docs/img/advantages/03.svg

<svg width="40" height="38" viewBox="0 0 40 38" fill="none" xmlns="http://www.w3.org/2000/svg">
<path d="M36.8986 19.7346V1.5198C36.8986 0.86997 36.3718 0.34314 35.722 0.34314H4.19674C3.54691 0.34314 3.02008 0.86997 3.02008 1.5198V21.1867C2.45246 21.2694 1.89755 21.4898 1.40664 21.8542C-0.140899 22.9516 -0.506918 25.4073 0.789368 26.9218L6.08928 33.347C9.36996 37.1866 12.855 37.657 18.0359 37.657C22.4819 37.657 24.4696 37.6766 28.3443 36.7937L32.1173 35.8913C32.7291 36.7456 33.7003 37.299 34.7922 37.299H36.6508C38.4975 37.299 40 35.7163 40 33.7708V23.2523C40.0001 21.3947 38.63 19.8688 36.8986 19.7346ZM31.6098 22.1551L30.042 21.3588C27.4642 20.0577 24.4839 20.0095 21.8655 21.2269C21.1511 21.5079 19.5929 22.4506 18.7847 22.4191H13.3445C11.54 22.4191 10.0718 23.8872 10.0718 25.6918V26.5499C10.0617 26.5392 10.0511 26.5291 10.0411 26.5182L6.15619 22.3013C5.9211 22.0462 5.65697 21.8326 5.37348 21.6613V9.98736H15.0027V14.3007C15.0027 14.9505 15.5295 15.4773 16.1794 15.4773H23.6042C24.254 15.4773 24.7808 14.9505 24.7808 14.3007V9.98736H34.5454V19.7346C33.1706 19.8408 32.0242 20.8243 31.6098 22.1551ZM17.356 9.98736H22.4274V13.124H17.356V9.98736ZM34.5453 7.63404H24.7808V2.69646H34.5454V7.63404H34.5453ZM22.4275 2.69646V7.63412H17.356V2.69646H22.4275ZM15.0026 2.69646V7.63412H5.3734V2.69646H15.0026ZM27.7982 34.5046C24.2188 35.3244 22.0631 35.2912 18.0781 35.2912C13.2146 35.2912 10.8646 35.2126 7.90479 31.8494L2.60488 25.4243C1.683 24.2238 3.35276 22.8067 4.4254 23.8957L8.31034 28.1127C9.3371 29.1961 10.6291 29.7923 12.2216 29.8274H22.9926C23.6425 29.8274 24.1693 29.3006 24.1693 28.6507C24.1693 28.0009 23.6425 27.4741 22.9926 27.4741H12.425V25.6916C12.425 25.1847 12.8374 24.7722 13.3444 24.7722H18.7847C20.0103 24.86 21.7793 23.8366 22.8575 23.3607C24.8186 22.4489 27.0508 22.485 28.9789 23.4581L31.4432 24.7098V33.6326L27.7982 34.5046ZM37.6467 33.7707C37.6467 34.4186 37.2 34.9456 36.6509 34.9456H34.7922C34.2431 34.9456 33.7965 34.4186 33.7965 33.7707V23.2523C33.7965 22.6044 34.2432 22.0773 34.7922 22.0773H36.6509C37.2 22.0773 37.6467 22.6044 37.6467 23.2523V33.7707Z" fill="#3A3A3A"/>
</svg>

<svg width="40" height="38" fill="none" xmlns="http://www.w3.org/2000/svg"><path d="M36.899 19.735V1.52c0-.65-.527-1.177-1.177-1.177H4.197C3.547.343 3.02.87 3.02 1.52v19.667a3.562 3.562 0 00-1.613.667c-1.548 1.098-1.914 3.553-.618 5.068l5.3 6.425c3.281 3.84 6.766 4.31 11.947 4.31 4.446 0 6.434.02 10.308-.863l3.773-.903c.612.855 1.583 1.408 2.675 1.408h1.859c1.846 0 3.349-1.583 3.349-3.528V23.252c0-1.857-1.37-3.383-3.101-3.517zm-5.29 2.42l-1.567-.796a9.322 9.322 0 00-8.177-.132c-.714.28-2.272 1.224-3.08 1.192h-5.44a3.276 3.276 0 00-3.273 3.273v.858l-.03-.032-3.886-4.217a3.585 3.585 0 00-.783-.64V9.987h9.63v4.314c0 .65.527 1.176 1.176 1.176h7.425c.65 0 1.177-.527 1.177-1.176V9.987h9.764v9.748c-1.374.106-2.52 1.09-2.935 2.42zM17.357 9.987h5.071v3.137h-5.071V9.987zm17.19-2.353H24.78V2.696h9.764v4.938zM22.426 2.696v4.938h-5.071V2.696h5.071zm-7.424 0v4.938h-9.63V2.696h9.63zm12.795 31.809c-3.58.82-5.735.786-9.72.786-4.863 0-7.213-.078-10.173-3.442l-5.3-6.425c-.922-1.2.748-2.617 1.82-1.528l3.885 4.217c1.027 1.083 2.32 1.68 3.912 1.714h10.77a1.177 1.177 0 100-2.353H12.426v-1.782a.92.92 0 01.92-.92h5.44c1.225.088 2.994-.935 4.073-1.411a6.98 6.98 0 016.12.097l2.465 1.252v8.923l-3.645.872zm9.849-.734c0 .648-.447 1.175-.996 1.175h-1.859c-.549 0-.995-.527-.995-1.175V23.252c0-.648.446-1.175.995-1.175h1.859c.549 0 .996.527.996 1.175v10.519z" fill="#3A3A3A"/></svg>
